X:214
T: Der Jger und das Mgdelein (2c), S. 31
N: T0102
O: Luxemburg
S: Singendes Volk, Esch-Alzette 1937 posth.]
N: JUNGLINSTER, gesungen vom Gemeindewegewrter, hhh
N: Valentin Santer
R: "erzhlende Lieder"]
M: 2/4
L: 1/8
K: G
 | G2GA | B2AG | GEEE | E2
EE | GGFG | A2F2 | G2DD | D2
D2 | B2BB | B2d2 | BBcB | A2
DD | DDDA | A2A2 | c2FA | G2z2

